Papirus/22x22/panel/si-syncing-3.svg

<?xml version="1.0" encoding="UTF-8" standalone="no"?>
<svg id="svg2" xmlns:rdf="http://www.w3.org/1999/02/22-rdf-syntax-ns#" xmlns="http://www.w3.org/2000/svg" viewBox="0 0 22 22" width="22" version="1.1" xmlns:cc="http://creativecommons.org/ns#" height="22" xmlns:dc="http://purl.org/dc/elements/1.1/">
 <metadata id="metadata12">
  <rdf:RDF>
   <cc:Work rdf:about="">
    <dc:format>image/svg+xml</dc:format>
    <dc:type rdf:resource="http://purl.org/dc/dcmitype/StillImage"/>
    <dc:title/>
   </cc:Work>
  </rdf:RDF>
 </metadata>
 <path id="path6" d="m19 11a8 8 0 0 0 -8 -8 8 8 0 0 0 -8 8 8 8 0 0 0 8 8 8 8 0 0 0 8 -8zm-2 0a6 6 0 0 1 -2.023 4.486 1.5 1.5 0 0 1 0.023 0.264 1.5 1.5 0 0 1 -1.5 1.5 1.5 1.5 0 0 1 -1.053 -0.434 6 6 0 0 1 -1.447 0.184 6 6 0 0 1 -3.5527 -1.174 1.5 1.5 0 0 1 -0.6973 0.174 1.5 1.5 0 0 1 -1.5 -1.5 1.5 1.5 0 0 1 0.332 -0.939 6 6 0 0 1 -0.582 -2.561 6 6 0 0 1 3.002 -5.1914 1.5 1.5 0 0 1 -0.002 -0.0586 1.5 1.5 0 0 1 1.5 -1.5 1.5 1.5 0 0 1 1.3008 0.75978 6 6 0 0 1 0.19921 -0.0098 6 6 0 0 1 6 6zm-1 0a5 5 0 0 0 -5 -5 5 5 0 0 0 -0.02148 0.0000029 1.5 1.5 0 0 1 -0.76172 1.0645l0.55273 3.4609a1.5 1.5 0 0 1 1.2305 1.4746 1.5 1.5 0 0 1 -0.22656 0.79102l1.2344 1.543a1.5 1.5 0 0 1 0.492 -0.084 1.5 1.5 0 0 1 0.965 0.352 5 5 0 0 0 1.535 -3.602zm-3.773 3.959-1.235-1.543a1.5 1.5 0 0 1 -0.492 0.084 1.5 1.5 0 0 1 -0.898 -0.301l-1.3989 0.934a1.5 1.5 0 0 1 0.0469 0.367 1.5 1.5 0 0 1 -0.1211 0.59 5 5 0 0 0 2.8711 0.91 5 5 0 0 0 1.008 -0.107 1.5 1.5 0 0 1 -0.008 -0.143 1.5 1.5 0 0 1 0.227 -0.791zm-2.444-4.273-0.554-3.4614a1.5 1.5 0 0 1 -0.8481 -0.4785 5 5 0 0 0 -2.3809 4.2539 5 5 0 0 0 0.4395 2.033 1.5 1.5 0 0 1 0.31055 -0.0332 1.5 1.5 0 0 1 0.89844 0.30078l1.3984-0.93359a1.5 1.5 0 0 1 -0.0469 -0.367 1.5 1.5 0 0 1 0.7832 -1.315z" fill="#fff"/>
</svg>

<?xml version="1.0" encoding="UTF-8" standalone="no"?>
<svg xmlns:dc="http://purl.org/dc/elements/1.1/" xmlns:cc="http://creativecommons.org/ns#" xmlns:rdf="http://www.w3.org/1999/02/22-rdf-syntax-ns#" xmlns:svg="http://www.w3.org/2000/svg" xmlns="http://www.w3.org/2000/svg" id="svg2" viewBox="0 0 22 22" version="1.1" width="22" height="22">
    <metadata id="metadata12">
        <rdf:RDF>
            <cc:Work rdf:about="">
                <dc:format>
                    image/svg+xml
                </dc:format>
                <dc:type rdf:resource="http://purl.org/dc/dcmitype/StillImage"/>
                <dc:title/>
            </cc:Work>
        </rdf:RDF>
    </metadata>
    <path d="m 19,11 a 8,8 0 0 0 -8,-8 8,8 0 0 0 -8,8 8,8 0 0 0 8,8 8,8 0 0 0 8,-8 z m -2,0 A 6,6 0 0 1 14.977,15.486 1.5,1.5 0 0 1 15,15.75 1.5,1.5 0 0 1 13.5,17.25 1.5,1.5 0 0 1 12.447,16.816 6,6 0 0 1 11,17 6,6 0 0 1 7.4473,15.826 1.5,1.5 0 0 1 6.75,16 1.5,1.5 0 0 1 5.25,14.5 1.5,1.5 0 0 1 5.582,13.561 6,6 0 0 1 5,11 6,6 0 0 1 8.002,5.8086 1.5,1.5 0 0 1 8,5.75 a 1.5,1.5 0 0 1 1.5,-1.5 1.5,1.5 0 0 1 1.3008,0.75978 6,6 0 0 1 0.19921,-0.0098 6,6 0 0 1 6,6 z m -1,0 a 5,5 0 0 0 -5,-5 5,5 0 0 0 -0.02148,2.9e-6 1.5,1.5 0 0 1 -0.76172,1.0645 l 0.55273,3.4609001 a 1.5,1.5 0 0 1 1.2305,1.4746 1.5,1.5 0 0 1 -0.22656,0.79102 l 1.2344,1.543 a 1.5,1.5 0 0 1 0.492,-0.084 1.5,1.5 0 0 1 0.965,0.352 5,5 0 0 0 1.535,-3.602 z m -3.773,3.959 -1.235,-1.543 A 1.5,1.5 0 0 1 10.5,13.5 1.5,1.5 0 0 1 9.602,13.199 L 8.2031,14.133 A 1.5,1.5 0 0 1 8.25,14.5 1.5,1.5 0 0 1 8.1289,15.09 5,5 0 0 0 11,16 5,5 0 0 0 12.0078,15.89258 1.5,1.5 0 0 1 12,15.75001 1.5,1.5 0 0 1 12.22656,14.95899 Z M 9.783,10.686 9.229,7.2246 A 1.5,1.5 0 0 1 8.3809,6.7461 5,5 0 0 0 6,11 a 5,5 0 0 0 0.4395,2.033 1.5,1.5 0 0 1 0.31055,-0.0332 1.5,1.5 0 0 1 0.89844,0.30078 l 1.3984,-0.93359 A 1.5,1.5 0 0 1 9.00002,11.9998 1.5,1.5 0 0 1 9.78322,10.6853 Z" id="path6" style="fill:#ffffff;fill-opacity:1;opacity:1"/>
</svg>
